X:246
T:Coleman's Cross
D:Barde
Z:Nigel Gatherer
L:1/8
R:jig
M:6/8
K:D
z | B2e efe | B2e efe | A2d ded | A2d ded  |
    B2e efe | B2e g2a | bag agf | gee e2  :|
z | gdB G3  | F3  AFD | GBd efg | fdc def  |
    gdB G3  | F3  AGF | GBd efg | fdc d2 :|]
